X:14
T: Lindenschmid
N: A0376
O: Europa, Mitteleuropa, Deutschland
N: Souterliedekens 1540 ad Ps. 45
R: Romanze, Ballade, Lied, Personenlied
M: 6/2
L: 1/4
K: G
G2 | G4G2d4d2 | c2_B2A4z2
A2 | G4G2d4d2 | c2_B2A3Bc2
c2 | _B2A2B2G2 | =F4D4z2
A2 | _B4A2G4d2 | c2_B2A3Bc2
c2 | _B2A2B2G2 | =F4D4 | _B4AGc4B2 | A4G6

@@@ Tune index: 327
